resources/assets/img/patterns/organisms/elife-logo-symbol.svg

<?xml version="1.0" encoding="UTF-8"?>
<svg width="500px" height="500px" viewBox="0 0 500 500" version="1.1" xmlns="http://www.w3.org/2000/svg" xmlns:xlink="http://www.w3.org/1999/xlink">
    <title>journal-symbol</title>
    <desc>Created with Sketch.</desc>
    <g id="journal-symbol" stroke="none" stroke-width="1" fill="none" fill-rule="evenodd">
        <rect id="Rectangle" fill="#FFFFFF" x="0" y="0" width="500" height="500"></rect>
        <g id="logo" transform="translate(14.000000, 14.000000)">
            <g id="symbol">
                <circle id="Oval" stroke="#BEC3C5" stroke-width="22" fill="#FFFFFF" cx="236.5" cy="236.5" r="225.5"></circle>
                <path d="M202.9951,202.99785 C215.0291,215.03185 234.7191,215.03185 246.7476,202.99785 L359.9706,89.78035 C343.7951,76.00285 325.3206,64.88185 305.2016,57.04435 L202.9951,159.24535 C190.9611,171.27935 190.9611,190.96385 202.9951,202.99785" id="Fill-2" fill="#7CB13F"></path>
                <path d="M268.6244,268.62715 C280.6584,280.66115 280.6584,300.34565 268.6244,312.37965 L181.1194,399.88465 C169.0854,411.91315 149.4009,411.91315 137.3669,399.88465 C125.3329,387.85065 125.3329,368.16615 137.3669,356.13215 L224.8719,268.62715 C236.9004,256.59315 256.5904,256.59315 268.6244,268.62715" id="Fill-4" fill="#D71D62"></path>
                <path d="M181.11885,224.8741 C193.15285,236.9081 193.15285,256.5981 181.11885,268.6266 C169.08485,280.6606 149.40035,280.6606 137.36635,268.6266 C125.33235,256.5981 125.33235,236.9081 137.36635,224.8741 C149.40035,212.8401 169.08485,212.8401 181.11885,224.8741" id="Fill-6" fill="#336A2D"></path>
                <path d="M290.5012,115.4945 C302.5352,127.5285 302.5352,147.213 290.5012,159.247 C278.4672,171.281 258.7772,171.281 246.7487,159.247 C234.7147,147.213 234.7147,127.5285 246.7487,115.4945 C258.7772,103.4605 278.4672,103.4605 290.5012,115.4945" id="Fill-8" fill="#336A2D"></path>
                <path d="M202.9951,334.2537 C215.0291,346.2877 215.0291,365.9777 202.9951,378.0062 C190.9611,390.0402 171.2711,390.0402 159.2426,378.0062 C147.2086,365.9777 147.2086,346.2877 159.2426,334.2537 C171.2711,322.2197 190.9611,322.2197 202.9951,334.2537" id="Fill-10" fill="#861450"></path>
                <path d="M399.88355,137.3713 C411.91755,149.4053 411.91755,169.0898 399.88355,181.1238 C387.84955,193.1578 368.15955,193.1578 356.13105,181.1238 C344.09705,169.0898 344.09705,149.4053 356.13105,137.3713 C368.15955,125.3373 387.84955,125.3373 399.88355,137.3713" id="Fill-12" fill="#861450"></path>
                <path d="M334.25425,202.99785 C346.28825,215.03185 346.28825,234.72185 334.25425,246.75035 C322.22025,258.78435 302.53025,258.78435 290.50175,246.75035 C278.46775,234.72185 278.46775,215.03185 290.50175,202.99785 C302.53025,190.96385 322.22025,190.96385 334.25425,202.99785" id="Fill-14" fill="#D71D62"></path>
                <path d="M356.1305,312.3802 C368.1645,324.4142 368.1645,344.0987 356.1305,356.1327 C344.0965,368.1667 324.4065,368.1667 312.378,356.1327 C300.344,344.0987 300.344,324.4142 312.378,312.3802 C324.4065,300.3462 344.0965,300.3462 356.1305,312.3802" id="Fill-16" fill="#2994D2"></path>
                <path d="M181.11885,93.61825 C193.15285,105.65225 193.15285,125.33675 181.11885,137.37075 C169.08485,149.40475 149.40035,149.40475 137.36635,137.37075 C125.33235,125.33675 125.33235,105.65225 137.36635,93.61825 C149.40035,81.58425 169.08485,81.58425 181.11885,93.61825" id="Fill-18" fill="#08589B"></path>
                <path d="M115.4945,290.5034 C103.4605,278.4694 83.7705,278.4694 71.742,290.5034 L57.0405,305.1994 C64.878,325.3239 75.999,343.7929 89.7765,359.9684 L115.4945,334.2559 C127.5285,322.2219 127.5285,302.5374 115.4945,290.5034" id="Fill-20" fill="#861450"></path>
                <path d="M202.9951,71.74145 C215.0291,83.77545 234.7191,83.77545 246.7476,71.74145 L268.6266,49.86245 C269.4351,49.05395 270.0566,48.12995 270.7551,47.24995 C259.4196,45.15445 247.7486,43.99945 235.8136,43.99945 C221.4806,43.99945 207.5326,45.62745 194.0906,48.62495 C193.7551,56.96295 196.6646,65.41095 202.9951,71.74145" id="Fill-22" fill="#D71D62"></path>
                <path d="M115.4945,202.99785 C127.5285,190.96385 127.5285,171.27935 115.4945,159.24535 C103.4605,147.21135 83.7705,147.21135 71.742,159.24535 L52.8825,178.09935 C47.124,196.32635 44,215.70835 44,235.81085 C44,245.98035 44.8085,255.96285 46.343,265.70885 C51.645,264.41085 56.683,261.80935 60.8025,257.68985 L115.4945,202.99785 Z" id="Fill-24" fill="#2994D2"></path>
                <path d="M378.00675,246.7509 C365.97275,258.7849 365.97275,278.4694 378.00675,290.5034 C389.17725,301.6739 406.87625,302.3339 418.99275,292.7584 C424.60275,274.7569 427.62225,255.6334 427.62225,235.8114 C427.62225,223.8709 426.47275,212.2054 424.37725,200.8644 C423.49725,201.5684 422.57325,202.1844 421.75925,202.9984 L378.00675,246.7509 Z" id="Fill-26" fill="#08589B"></path>
                <path d="M290.5012,378.00675 C278.4672,365.97275 258.7772,365.97275 246.7487,378.00675 L202.9962,421.75925 C202.1822,422.57325 201.5662,423.49725 200.8622,424.37725 C212.2032,426.47275 223.8742,427.62225 235.8147,427.62225 C255.6312,427.62225 274.7602,424.60275 292.7562,418.99825 C302.3317,406.88175 301.6717,389.18275 290.5012,378.00675" id="Fill-28" fill="#7CB13F"></path>
            </g>
        </g>
    </g>
</svg>

<svg width="500" height="500" viewBox="0 0 500 500" xmlns="http://www.w3.org/2000/svg"><title>journal-symbol</title><g fill="none" fill-rule="evenodd"><path fill="#FFF" d="M0 0h500v500H0z"/><g transform="translate(14 14)"><circle stroke="#BEC3C5" stroke-width="22" fill="#FFF" cx="236.5" cy="236.5" r="225.5"/><path d="M202.995 202.998c12.034 12.034 31.724 12.034 43.753 0L359.97 89.78a191.886 191.886 0 0 0-54.77-32.736L202.996 159.245c-12.034 12.034-12.034 31.719 0 43.753" fill="#7CB13F"/><path d="M268.624 268.627c12.034 12.034 12.034 31.719 0 43.753l-87.505 87.505c-12.034 12.028-31.718 12.028-43.752 0-12.034-12.034-12.034-31.719 0-43.753l87.505-87.505c12.028-12.034 31.718-12.034 43.752 0" fill="#D71D62"/><path d="M181.119 224.874c12.034 12.034 12.034 31.724 0 43.753-12.034 12.034-31.719 12.034-43.753 0-12.034-12.029-12.034-31.719 0-43.753 12.034-12.034 31.719-12.034 43.753 0M290.501 115.495c12.034 12.033 12.034 31.718 0 43.752-12.034 12.034-31.724 12.034-43.752 0-12.034-12.034-12.034-31.719 0-43.753 12.028-12.034 31.718-12.034 43.752 0" fill="#336A2D"/><path d="M202.995 334.254c12.034 12.034 12.034 31.724 0 43.752-12.034 12.034-31.724 12.034-43.752 0-12.034-12.028-12.034-31.718 0-43.752 12.028-12.034 31.718-12.034 43.752 0M399.884 137.371c12.034 12.034 12.034 31.719 0 43.753-12.034 12.034-31.724 12.034-43.753 0-12.034-12.034-12.034-31.719 0-43.753 12.029-12.034 31.719-12.034 43.753 0" fill="#861450"/><path d="M334.254 202.998c12.034 12.034 12.034 31.724 0 43.752-12.034 12.034-31.724 12.034-43.752 0-12.034-12.028-12.034-31.718 0-43.752 12.028-12.034 31.718-12.034 43.752 0" fill="#D71D62"/><path d="M356.13 312.38c12.034 12.034 12.034 31.719 0 43.753-12.034 12.034-31.724 12.034-43.752 0-12.034-12.034-12.034-31.719 0-43.753 12.029-12.034 31.719-12.034 43.752 0" fill="#2994D2"/><path d="M181.119 93.618c12.034 12.034 12.034 31.719 0 43.753-12.034 12.034-31.719 12.034-43.753 0-12.034-12.034-12.034-31.719 0-43.753 12.034-12.034 31.719-12.034 43.753 0" fill="#08589B"/><path d="M115.495 290.503c-12.035-12.034-31.725-12.034-43.753 0L57.04 305.2a191.81 191.81 0 0 0 32.736 54.77l25.719-25.713c12.033-12.034 12.033-31.719 0-43.753" fill="#861450"/><path d="M202.995 71.741c12.034 12.034 31.724 12.034 43.753 0l21.879-21.879c.808-.808 1.43-1.732 2.128-2.612C259.42 45.154 247.75 44 235.814 44c-14.333 0-28.281 1.627-41.723 4.625-.336 8.338 2.574 16.786 8.904 23.116" fill="#D71D62"/><path d="M115.495 202.998c12.033-12.034 12.033-31.719 0-43.753-12.035-12.034-31.725-12.034-43.753 0L52.882 178.1A191.244 191.244 0 0 0 44 235.811c0 10.17.809 20.152 2.343 29.898 5.302-1.298 10.34-3.9 14.46-8.02l54.692-54.691z" fill="#2994D2"/><path d="M378.007 246.75c-12.034 12.035-12.034 31.72 0 43.753 11.17 11.17 28.87 11.83 40.986 2.255 5.61-18.001 8.63-37.125 8.63-56.947 0-11.94-1.15-23.606-3.246-34.947-.88.704-1.804 1.32-2.618 2.134l-43.752 43.753z" fill="#08589B"/><path d="M290.501 378.007c-12.034-12.034-31.724-12.034-43.752 0l-43.753 43.752c-.814.814-1.43 1.738-2.134 2.618 11.341 2.096 23.012 3.245 34.953 3.245 19.816 0 38.945-3.02 56.941-8.624 9.576-12.116 8.916-29.815-2.255-40.991" fill="#7CB13F"/></g></g></svg>
